public/assets/images/field-d06.svg

<svg width="18" height="18" viewBox="0 0 18 18" fill="none" xmlns="http://www.w3.org/2000/svg">
<path d="M4.57638 12.513C4.57638 12.5937 4.54704 12.6633 4.48838 12.722C4.42971 12.7807 4.36004 12.81 4.27938 12.81H3.82838C3.74771 12.81 3.67804 12.7807 3.61938 12.722C3.56071 12.6633 3.53138 12.5937 3.53138 12.513V6.452L1.74937 7.805C1.68337 7.86367 1.61004 7.88567 1.52937 7.871C1.44871 7.85633 1.38271 7.81967 1.33138 7.761L1.06738 7.42C1.01604 7.354 0.994042 7.28067 1.00137 7.2C1.01604 7.11933 1.05637 7.05333 1.12237 7.002L3.47638 5.198C3.53504 5.154 3.59371 5.12833 3.65238 5.121C3.71104 5.11367 3.76971 5.11 3.82838 5.11H4.27938C4.36004 5.11 4.42971 5.13933 4.48838 5.198C4.54704 5.25667 4.57638 5.32633 4.57638 5.407V12.513Z" fill="#4F66EE"/>
<path d="M9.38226 8.762C9.60226 8.564 9.76726 8.36233 9.87726 8.157C9.98726 7.95167 10.0423 7.684 10.0423 7.354C10.0423 6.96533 9.92859 6.64267 9.70126 6.386C9.47392 6.122 9.11459 5.99 8.62326 5.99C8.36659 5.99 8.14659 6.02667 7.96326 6.1C7.78726 6.17333 7.63692 6.276 7.51226 6.408C7.39492 6.53267 7.29959 6.67933 7.22626 6.848C7.16026 7.00933 7.10526 7.178 7.06126 7.354C7.03926 7.43467 6.99892 7.497 6.94026 7.541C6.88892 7.585 6.83392 7.607 6.77526 7.607H6.26926C6.20326 7.607 6.14459 7.585 6.09326 7.541C6.04926 7.48967 6.02726 7.431 6.02726 7.365C6.03459 7.09367 6.09692 6.81867 6.21426 6.54C6.33159 6.26133 6.50026 6.00833 6.72026 5.781C6.94026 5.55367 7.20792 5.36667 7.52326 5.22C7.84592 5.07333 8.21259 5 8.62326 5C9.02659 5 9.38226 5.06233 9.69026 5.187C9.99826 5.31167 10.2549 5.48033 10.4603 5.693C10.6656 5.90567 10.8196 6.155 10.9223 6.441C11.0323 6.727 11.0873 7.03133 11.0873 7.354C11.0873 7.58867 11.0689 7.80133 11.0323 7.992C10.9956 8.18267 10.9333 8.366 10.8453 8.542C10.7646 8.71067 10.6583 8.87567 10.5263 9.037C10.3943 9.19833 10.2329 9.36333 10.0423 9.532L7.58926 11.82H10.9553C11.0359 11.82 11.1056 11.8493 11.1643 11.908C11.2229 11.9667 11.2523 12.0363 11.2523 12.117V12.513C11.2523 12.5937 11.2229 12.6633 11.1643 12.722C11.1056 12.7807 11.0359 12.81 10.9553 12.81H6.21426C6.13359 12.81 6.06392 12.7807 6.00526 12.722C5.94659 12.6633 5.91726 12.5937 5.91726 12.513V12.117C5.91726 12.0363 5.93559 11.9667 5.97226 11.908C6.00892 11.8493 6.07126 11.7797 6.15926 11.699L9.38226 8.762Z" fill="#4F66EE"/>
<path d="M13.2766 10.951C13.3133 11.0683 13.3646 11.1857 13.4306 11.303C13.4966 11.4203 13.5956 11.5267 13.7276 11.622C13.8596 11.71 14.0319 11.7833 14.2446 11.842C14.4646 11.9007 14.7469 11.93 15.0916 11.93C15.3189 11.93 15.5353 11.9043 15.7406 11.853C15.9459 11.7943 16.1256 11.7063 16.2796 11.589C16.4336 11.4717 16.5546 11.3287 16.6426 11.16C16.7379 10.984 16.7856 10.775 16.7856 10.533C16.7856 10.2983 16.7416 10.1003 16.6536 9.939C16.5656 9.77033 16.4446 9.63833 16.2906 9.543C16.1439 9.44033 15.9679 9.367 15.7626 9.323C15.5573 9.279 15.3336 9.257 15.0916 9.257H14.1786C14.0979 9.257 14.0283 9.22767 13.9696 9.169C13.9109 9.11033 13.8816 9.04067 13.8816 8.96V8.564C13.8816 8.498 13.8999 8.43933 13.9366 8.388C13.9806 8.32933 14.0209 8.278 14.0576 8.234L16.0376 6.1H12.8696C12.7889 6.1 12.7193 6.07067 12.6606 6.012C12.6019 5.95333 12.5726 5.88367 12.5726 5.803V5.407C12.5726 5.32633 12.6019 5.25667 12.6606 5.198C12.7193 5.13933 12.7889 5.11 12.8696 5.11H17.2036C17.2843 5.11 17.3539 5.13933 17.4126 5.198C17.4713 5.25667 17.5006 5.32633 17.5006 5.407V5.803C17.5006 5.869 17.4823 5.935 17.4456 6.001C17.4089 6.05967 17.3613 6.11833 17.3026 6.177L15.3556 8.278C15.7223 8.28533 16.0559 8.344 16.3566 8.454C16.6646 8.55667 16.9249 8.707 17.1376 8.905C17.3576 9.09567 17.5263 9.33033 17.6436 9.609C17.7683 9.88033 17.8306 10.1883 17.8306 10.533C17.8306 10.907 17.7573 11.2443 17.6106 11.545C17.4639 11.8383 17.2659 12.0877 17.0166 12.293C16.7746 12.491 16.4849 12.645 16.1476 12.755C15.8176 12.865 15.4656 12.92 15.0916 12.92C14.6003 12.92 14.1749 12.865 13.8156 12.755C13.4636 12.6377 13.1703 12.4873 12.9356 12.304C12.7083 12.1133 12.5359 11.9043 12.4186 11.677C12.3086 11.4423 12.2499 11.204 12.2426 10.962C12.2426 10.896 12.2646 10.841 12.3086 10.797C12.3599 10.7457 12.4186 10.72 12.4846 10.72H12.9906C13.0713 10.72 13.1336 10.7457 13.1776 10.797C13.2289 10.841 13.2619 10.8923 13.2766 10.951Z" fill="#4F66EE"/>
</svg>

<svg width="18" height="18" fill="none" xmlns="http://www.w3.org/2000/svg"><path d="M4.576 12.513c0 .08-.029.15-.088.209a.285.285 0 01-.209.088h-.45c-.081 0-.151-.03-.21-.088a.286.286 0 01-.088-.209V6.452L1.75 7.805a.25.25 0 01-.22.066.334.334 0 01-.198-.11l-.264-.341a.302.302 0 01-.066-.22.315.315 0 01.121-.198l2.354-1.804a.371.371 0 01.176-.077c.059-.007.118-.011.176-.011h.451c.081 0 .15.03.21.088a.286.286 0 01.087.209v7.106zM9.382 8.762c.22-.198.385-.4.495-.605.11-.205.165-.473.165-.803 0-.389-.113-.711-.34-.968-.228-.264-.587-.396-1.079-.396-.256 0-.476.037-.66.11a1.299 1.299 0 00-.45.308 1.519 1.519 0 00-.287.44c-.066.161-.12.33-.165.506a.335.335 0 01-.12.187.25.25 0 01-.166.066H6.27a.263.263 0 01-.176-.066.263.263 0 01-.066-.176c.008-.271.07-.546.187-.825.118-.279.286-.532.506-.759a2.67 2.67 0 01.803-.561 2.63 2.63 0 011.1-.22c.404 0 .76.062 1.067.187a2.071 2.071 0 011.232 1.254c.11.286.165.59.165.913 0 .235-.018.447-.055.638a2.12 2.12 0 01-.187.55c-.08.169-.187.334-.319.495a4.341 4.341 0 01-.484.495L7.59 11.82h3.366c.08 0 .15.03.21.088a.286.286 0 01.087.209v.396c0 .08-.03.15-.088.209a.286.286 0 01-.209.088h-4.74c-.081 0-.151-.03-.21-.088a.286.286 0 01-.088-.209v-.396c0-.08.019-.15.055-.209.037-.059.1-.128.187-.209l3.223-2.937zM13.277 10.951c.036.117.088.235.154.352.066.117.165.224.297.319.132.088.304.161.517.22.22.059.502.088.847.088.227 0 .443-.026.649-.077a1.61 1.61 0 00.539-.264c.154-.117.275-.26.363-.429.095-.176.143-.385.143-.627 0-.235-.044-.433-.132-.594a.998.998 0 00-.363-.396 1.434 1.434 0 00-.528-.22 3.203 3.203 0 00-.671-.066h-.913c-.081 0-.15-.03-.21-.088a.285.285 0 01-.087-.209v-.396c0-.066.018-.125.055-.176.044-.059.084-.11.12-.154l1.98-2.134H12.87c-.081 0-.15-.03-.21-.088a.285.285 0 01-.087-.209v-.396c0-.08.029-.15.088-.209a.286.286 0 01.209-.088h4.334c.08 0 .15.03.209.088a.285.285 0 01.088.209v.396a.404.404 0 01-.055.198 1.005 1.005 0 01-.143.176l-1.947 2.101c.366.007.7.066 1 .176.309.103.569.253.782.451.22.19.388.425.506.704.124.271.187.58.187.924 0 .374-.074.711-.22 1.012a2.277 2.277 0 01-.594.748 2.657 2.657 0 01-.87.462c-.33.11-.681.165-1.055.165-.492 0-.917-.055-1.276-.165a2.916 2.916 0 01-.88-.451c-.228-.19-.4-.4-.517-.627a1.8 1.8 0 01-.176-.715c0-.066.022-.121.066-.165a.242.242 0 01.176-.077h.506c.08 0 .143.026.187.077a.295.295 0 01.099.154z" fill="#4F66EE"/></svg>
